public/images/showcase/showcase2.svg

<svg xmlns="http://www.w3.org/2000/svg" width="654" height="733" fill="none" xmlns:v="https://vecta.io/nano"><path d="M275.033 608.164l-1.786 1.778a30 30 0 0 1-21.169 8.743H120.934c-1.068 0-1.934-.867-1.934-1.935V163.499a30 30 0 0 1 8.43-20.851l22.843-23.63a30 30 0 0 1 20.912-9.142l70.517-1.546a30 30 0 0 1 24.289 11.511l13.842 17.698a30 30 0 0 0 23.631 11.519H496c16.569 0 30 13.431 30 30v409.627c0 16.568-13.431 30-30 30h-98.436a30 30 0 0 1-21.168-8.743l-1.786-1.778a30 30 0 0 0-21.169-8.742h-57.24a30 30 0 0 0-21.168 8.742z" fill="#71c40b"/><path d="M120.548 618.685h.386m0 0h131.144a30 30 0 0 0 21.169-8.743l1.786-1.778a30 30 0 0 1 21.168-8.742h57.24a30 30 0 0 1 21.169 8.742l1.786 1.778a30 30 0 0 0 21.168 8.743H496c16.569 0 30-13.432 30-30V179.058c0-16.569-13.431-30-30-30H303.464a30 30 0 0 1-23.631-11.519l-13.842-17.698a30 30 0 0 0-24.289-11.511l-70.517 1.546c-7.903.174-15.418 3.459-20.912 9.142l-22.843 23.63a30 30 0 0 0-8.43 20.851V616.75c0 1.068.866 1.935 1.934 1.935z" stroke="#93be48" stroke-width="6" stroke-linejoin="bevel"/><use href="#B" fill="#77c713"/><use href="#B" stroke="#a8dc56" stroke-width="6" stroke-linejoin="bevel"/><path d="M120.382 354.558H124v2.682h-11.25v-4.86c0-.9.132-1.62.396-2.16a2.27 2.27 0 0 1 1.26-1.188c.576-.252 1.35-.378 2.322-.378 1.272 0 2.202.276 2.79.828.576.54.864 1.416.864 2.628v2.448zm-2.016 0v-2.106c0-.372-.054-.624-.162-.756-.108-.144-.306-.216-.594-.216h-1.89c-.288 0-.486.072-.594.216-.108.132-.162.384-.162.756v2.106h3.402zm.342-3.87l5.292-2.52v2.916l-4.23 1.98-1.062-2.376zm.666-6.958h2.412v-4.608H124v7.29h-11.25v-7.308l2.214.342v4.284h2.412v-3.942h1.998v3.942zm4.626-5.537l-11.25-3.114v-4.122l11.25-3.114v2.682l-8.712 2.412v.162l8.712 2.412v2.682zm-2.16-1.872h-1.998v-6.624h1.998v6.624zm1.962-17.239a7.03 7.03 0 0 1 .36 1.44 12.63 12.63 0 0 1 .108 1.764c0 .888-.096 1.626-.288 2.214-.192.576-.51 1.032-.954 1.368s-1.044.576-1.8.72-1.704.216-2.844.216c-1.152 0-2.106-.072-2.862-.216-.768-.156-1.374-.414-1.818-.774s-.756-.846-.936-1.458c-.192-.612-.288-1.392-.288-2.34a10.01 10.01 0 0 1 .054-.99l.144-1.026c.06-.336.132-.6.216-.792l2.16.342c-.072.264-.132.558-.18.882l-.108.918-.054.738c0 .672.084 1.146.252 1.422s.522.414 1.062.414h5.778l.144-.864c.036-.312.054-.618.054-.918 0-.504-.036-1.002-.108-1.494a9.03 9.03 0 0 0-.324-1.332l2.232-.234zm-8.838-6.012H124v2.682h-9.036v2.754h-2.214v-8.19h2.214v2.754zm-2.214-4.187v-2.682H124v2.682h-11.25zm5.634-4.825c-1.176 0-2.142-.072-2.898-.216-.768-.156-1.368-.42-1.8-.792-.444-.372-.756-.876-.936-1.512-.18-.648-.27-1.464-.27-2.448 0-.972.09-1.782.27-2.43s.492-1.152.936-1.512c.432-.372 1.032-.636 1.8-.792.756-.156 1.722-.234 2.898-.234s2.142.078 2.898.234 1.356.42 1.8.792c.432.36.738.864.918 1.512s.27 1.458.27 2.43c0 .984-.09 1.8-.27 2.448-.18.636-.486 1.14-.918 1.512-.444.372-1.044.636-1.8.792-.756.144-1.722.216-2.898.216zm3.6-2.88v-2.682c0-.564-.084-.954-.252-1.17s-.462-.324-.882-.324h-6.084v2.718c0 .552.084.936.252 1.152.168.204.462.306.882.306h6.084zM124 291.9h-11.25v-2.646l5.508-3.42c.288-.168.516-.282.684-.342a1.31 1.31 0 0 1 .522-.108v-.108h-6.714v-2.682H124v2.628l-5.508 3.42-.684.36c-.168.06-.342.096-.522.108v.108H124v2.682zm-9.036-20.35H124v2.682h-9.036v2.754h-2.214v-8.19h2.214v2.754zm-2.214-4.187v-2.682H124v2.682h-11.25zm11.25-4.951l-11.25-.72V258.2l7.11-1.962v-.126l-7.11-1.962v-3.474l11.25-.72v2.664l-7.2.432v.108l7.2 1.962v2.106l-7.2 1.962v.108l7.2.45v2.664zm-4.626-17.401h2.412v-4.608H124v7.29h-11.25v-7.308l2.214.342v4.284h2.412v-3.942h1.998v3.942zm53.593-106.479c0-1.92.13-3.51.39-4.77.28-1.28.74-2.29 1.38-3.03.66-.74 1.54-1.26 2.64-1.56 1.12-.32 2.52-.48 4.2-.48s3.07.16 4.17.48c1.1.3 1.97.82 2.61 1.56.64.72 1.1 1.72 1.38 3 .28 1.26.42 2.86.42 4.8 0 1.54-.09 2.87-.27 3.99-.16 1.12-.43 2.06-.81 2.82-.38.74-.9 1.33-1.56 1.77s-1.48.75-2.46.93c-.98.2-2.14.3-3.48.3-1.36 0-2.53-.1-3.51-.3-.96-.18-1.77-.49-2.43-.93-.66-.46-1.19-1.06-1.59-1.8-.38-.76-.66-1.69-.84-2.79-.16-1.12-.24-2.45-.24-3.99zm5.67-5.34v9.06c0 .64.13 1.07.39 1.29.28.2.85.3 1.71.3h3.75v-9.06c0-.64-.16-1.06-.48-1.26-.3-.22-.91-.33-1.83-.33h-3.54zm14.223 5.34c0-1.92.13-3.51.39-4.77.28-1.28.74-2.29 1.38-3.03.66-.74 1.54-1.26 2.64-1.56 1.12-.32 2.52-.48 4.2-.48s3.07.16 4.17.48c1.1.3 1.97.82 2.61 1.56.64.72 1.1 1.72 1.38 3 .28 1.26.42 2.86.42 4.8 0 1.54-.09 2.87-.27 3.99-.16 1.12-.43 2.06-.81 2.82-.38.74-.9 1.33-1.56 1.77s-1.48.75-2.46.93c-.98.2-2.14.3-3.48.3-1.36 0-2.53-.1-3.51-.3-.96-.18-1.77-.49-2.43-.93-.66-.46-1.19-1.06-1.59-1.8-.38-.76-.66-1.69-.84-2.79-.16-1.12-.24-2.45-.24-3.99zm5.67-5.34v9.06c0 .64.13 1.07.39 1.29.28.2.85.3 1.71.3h3.75v-9.06c0-.64-.16-1.06-.48-1.26-.3-.22-.91-.33-1.83-.33h-3.54zm14.072 14.7v-4.02c0-.72.08-1.36.24-1.92a4.21 4.21 0 0 1 .84-1.59c.4-.48.95-.95 1.65-1.41s1.59-.94 2.67-1.44l3.9-1.68v-2.43c-.32-.08-.7-.13-1.14-.15-.42-.04-.97-.06-1.65-.06-.8 0-1.69.05-2.67.15l-2.79.42-.69-4.14c1.16-.3 2.37-.53 3.63-.69s2.45-.24 3.57-.24c2.54 0 4.41.43 5.61 1.29 1.2.84 1.8 2.16 1.8 3.96 0 .74-.07 1.4-.21 1.98s-.41 1.11-.81 1.59c-.38.48-.94.95-1.68 1.41-.72.46-1.68.96-2.88 1.5l-4.38 1.86v1.26h9.66v4.35h-14.67z" fill="#fff"/><g filter="url(#A)"><rect x="200" y="200" width="254" height="333" rx="127" fill="#b8e46c"/></g><defs><filter id="A" x="0" y="0" width="654" height="733" filterUnits="userSpaceOnUse" color-interpolation-filters="sRGB"><feFlood flood-opacity="0"/><feBlend in="SourceGraphic"/><feGaussianBlur stdDeviation="100"/></filter><path id="B" d="M93 226.5c0-14.083 11.417-25.5 25.5-25.5s25.5 11.417 25.5 25.5v145c0 14.083-11.417 25.5-25.5 25.5S93 385.583 93 371.5v-145z"/></defs></svg>

<svg width="654" height="733" viewBox="0 0 654 733" fill="none" xmlns="http://www.w3.org/2000/svg">
<path d="M275.033 608.164L273.247 609.942C267.624 615.541 260.013 618.685 252.078 618.685H120.934C119.866 618.685 119 617.818 119 616.75L119 163.499C119 155.718 122.023 148.242 127.43 142.648L150.273 119.018C155.767 113.335 163.282 110.049 171.185 109.876L241.702 108.33C251.16 108.122 260.162 112.389 265.991 119.841L279.833 137.539C285.519 144.809 294.234 149.058 303.464 149.058H496C512.569 149.058 526 162.489 526 179.058V588.685C526 605.253 512.569 618.685 496 618.685H397.564C389.63 618.685 382.018 615.541 376.396 609.942L374.61 608.164C368.987 602.565 361.376 599.422 353.441 599.422H296.201C288.267 599.422 280.655 602.565 275.033 608.164Z" fill="#71C40B"/>
<path d="M120.548 618.685H120.934M120.934 618.685H252.078C260.013 618.685 267.624 615.541 273.247 609.942L275.033 608.164C280.655 602.565 288.267 599.422 296.201 599.422H353.441C361.376 599.422 368.987 602.565 374.61 608.164L376.396 609.942C382.018 615.541 389.63 618.685 397.564 618.685H496C512.569 618.685 526 605.253 526 588.685V179.058C526 162.489 512.569 149.058 496 149.058H303.464C294.234 149.058 285.519 144.809 279.833 137.539L265.991 119.841C260.162 112.389 251.16 108.122 241.702 108.33L171.185 109.876C163.282 110.05 155.767 113.335 150.273 119.018L127.43 142.648C122.023 148.242 119 155.718 119 163.499L119 616.75C119 617.818 119.866 618.685 120.934 618.685Z" stroke="#93BE48" stroke-width="6" stroke-linejoin="bevel"/>
<path d="M93 226.5C93 212.417 104.417 201 118.5 201C132.583 201 144 212.417 144 226.5V371.5C144 385.583 132.583 397 118.5 397C104.417 397 93 385.583 93 371.5V226.5Z" fill="#77C713"/>
<path d="M93 226.5C93 212.417 104.417 201 118.5 201C132.583 201 144 212.417 144 226.5V371.5C144 385.583 132.583 397 118.5 397C104.417 397 93 385.583 93 371.5V226.5Z" stroke="#A8DC56" stroke-width="6" stroke-linejoin="bevel"/>
<path d="M120.382 354.558H124V357.24H112.75V352.38C112.75 351.48 112.882 350.76 113.146 350.22C113.398 349.668 113.818 349.272 114.406 349.032C114.982 348.78 115.756 348.654 116.728 348.654C118 348.654 118.93 348.93 119.518 349.482C120.094 350.022 120.382 350.898 120.382 352.11V354.558ZM118.366 354.558V352.452C118.366 352.08 118.312 351.828 118.204 351.696C118.096 351.552 117.898 351.48 117.61 351.48H115.72C115.432 351.48 115.234 351.552 115.126 351.696C115.018 351.828 114.964 352.08 114.964 352.452V354.558H118.366ZM118.708 350.688L124 348.168V351.084L119.77 353.064L118.708 350.688ZM119.374 343.73H121.786V339.122H124V346.412H112.75V339.104L114.964 339.446V343.73H117.376V339.788H119.374V343.73ZM124 338.193L112.75 335.079V330.957L124 327.843V330.525L115.288 332.937V333.099L124 335.511V338.193ZM121.84 336.321H119.842V329.697H121.84V336.321ZM123.802 319.082C123.97 319.538 124.09 320.018 124.162 320.522C124.234 321.026 124.27 321.614 124.27 322.286C124.27 323.174 124.174 323.912 123.982 324.5C123.79 325.076 123.472 325.532 123.028 325.868C122.584 326.204 121.984 326.444 121.228 326.588C120.472 326.732 119.524 326.804 118.384 326.804C117.232 326.804 116.278 326.732 115.522 326.588C114.754 326.432 114.148 326.174 113.704 325.814C113.26 325.454 112.948 324.968 112.768 324.356C112.576 323.744 112.48 322.964 112.48 322.016C112.48 321.716 112.498 321.386 112.534 321.026C112.57 320.666 112.618 320.324 112.678 320C112.738 319.664 112.81 319.4 112.894 319.208L115.054 319.55C114.982 319.814 114.922 320.108 114.874 320.432C114.826 320.744 114.79 321.05 114.766 321.35C114.73 321.65 114.712 321.896 114.712 322.088C114.712 322.76 114.796 323.234 114.964 323.51C115.132 323.786 115.486 323.924 116.026 323.924H121.804C121.864 323.648 121.912 323.36 121.948 323.06C121.984 322.748 122.002 322.442 122.002 322.142C122.002 321.638 121.966 321.14 121.894 320.648C121.81 320.156 121.702 319.712 121.57 319.316L123.802 319.082ZM114.964 313.07H124V315.752H114.964V318.506H112.75V310.316H114.964V313.07ZM112.75 308.883V306.201H124V308.883H112.75ZM118.384 304.058C117.208 304.058 116.242 303.986 115.486 303.842C114.718 303.686 114.118 303.422 113.686 303.05C113.242 302.678 112.93 302.174 112.75 301.538C112.57 300.89 112.48 300.074 112.48 299.09C112.48 298.118 112.57 297.308 112.75 296.66C112.93 296.012 113.242 295.508 113.686 295.148C114.118 294.776 114.718 294.512 115.486 294.356C116.242 294.2 117.208 294.122 118.384 294.122C119.56 294.122 120.526 294.2 121.282 294.356C122.038 294.512 122.638 294.776 123.082 295.148C123.514 295.508 123.82 296.012 124 296.66C124.18 297.308 124.27 298.118 124.27 299.09C124.27 300.074 124.18 300.89 124 301.538C123.82 302.174 123.514 302.678 123.082 303.05C122.638 303.422 122.038 303.686 121.282 303.842C120.526 303.986 119.56 304.058 118.384 304.058ZM121.984 301.178V298.496C121.984 297.932 121.9 297.542 121.732 297.326C121.564 297.11 121.27 297.002 120.85 297.002H114.766V299.72C114.766 300.272 114.85 300.656 115.018 300.872C115.186 301.076 115.48 301.178 115.9 301.178H121.984ZM124 291.9H112.75V289.254L118.258 285.834C118.546 285.666 118.774 285.552 118.942 285.492C119.11 285.42 119.284 285.384 119.464 285.384V285.276H112.75V282.594H124V285.222L118.492 288.642C118.204 288.81 117.976 288.93 117.808 289.002C117.64 289.062 117.466 289.098 117.286 289.11V289.218H124V291.9ZM114.964 271.55H124V274.232H114.964V276.986H112.75V268.796H114.964V271.55ZM112.75 267.363V264.681H124V267.363H112.75ZM124 262.412L112.75 261.692V258.2L119.86 256.238V256.112L112.75 254.15V250.676L124 249.956V252.62L116.8 253.052V253.16L124 255.122V257.228L116.8 259.19V259.298L124 259.748V262.412ZM119.374 245.011H121.786V240.403H124V247.693H112.75L112.75 240.385L114.964 240.727V245.011H117.376V241.069H119.374V245.011Z" fill="white"/>
<path d="M172.967 138.532C172.967 136.612 173.097 135.022 173.357 133.762C173.637 132.482 174.097 131.472 174.737 130.732C175.397 129.992 176.277 129.472 177.377 129.172C178.497 128.852 179.897 128.692 181.577 128.692C183.257 128.692 184.647 128.852 185.747 129.172C186.847 129.472 187.717 129.992 188.357 130.732C188.997 131.452 189.457 132.452 189.737 133.732C190.017 134.992 190.157 136.592 190.157 138.532C190.157 140.072 190.067 141.402 189.887 142.522C189.727 143.642 189.457 144.582 189.077 145.342C188.697 146.082 188.177 146.672 187.517 147.112C186.857 147.552 186.037 147.862 185.057 148.042C184.077 148.242 182.917 148.342 181.577 148.342C180.217 148.342 179.047 148.242 178.067 148.042C177.107 147.862 176.297 147.552 175.637 147.112C174.977 146.652 174.447 146.052 174.047 145.312C173.667 144.552 173.387 143.622 173.207 142.522C173.047 141.402 172.967 140.072 172.967 138.532ZM178.637 133.192V142.252C178.637 142.892 178.767 143.322 179.027 143.542C179.307 143.742 179.877 143.842 180.737 143.842H184.487V134.782C184.487 134.142 184.327 133.722 184.007 133.522C183.707 133.302 183.097 133.192 182.177 133.192H178.637ZM192.86 138.532C192.86 136.612 192.99 135.022 193.25 133.762C193.53 132.482 193.99 131.472 194.63 130.732C195.29 129.992 196.17 129.472 197.27 129.172C198.39 128.852 199.79 128.692 201.47 128.692C203.15 128.692 204.54 128.852 205.64 129.172C206.74 129.472 207.61 129.992 208.25 130.732C208.89 131.452 209.35 132.452 209.63 133.732C209.91 134.992 210.05 136.592 210.05 138.532C210.05 140.072 209.96 141.402 209.78 142.522C209.62 143.642 209.35 144.582 208.97 145.342C208.59 146.082 208.07 146.672 207.41 147.112C206.75 147.552 205.93 147.862 204.95 148.042C203.97 148.242 202.81 148.342 201.47 148.342C200.11 148.342 198.94 148.242 197.96 148.042C197 147.862 196.19 147.552 195.53 147.112C194.87 146.652 194.34 146.052 193.94 145.312C193.56 144.552 193.28 143.622 193.1 142.522C192.94 141.402 192.86 140.072 192.86 138.532ZM198.53 133.192V142.252C198.53 142.892 198.66 143.322 198.92 143.542C199.2 143.742 199.77 143.842 200.63 143.842H204.38V134.782C204.38 134.142 204.22 133.722 203.9 133.522C203.6 133.302 202.99 133.192 202.07 133.192H198.53ZM212.602 147.892V143.872C212.602 143.152 212.682 142.512 212.842 141.952C213.002 141.372 213.282 140.842 213.682 140.362C214.082 139.882 214.632 139.412 215.332 138.952C216.032 138.492 216.922 138.012 218.002 137.512C219.082 137.012 220.382 136.452 221.902 135.832V133.402C221.582 133.322 221.202 133.272 220.762 133.252C220.342 133.212 219.792 133.192 219.112 133.192C218.312 133.192 217.422 133.242 216.442 133.342C215.482 133.442 214.552 133.582 213.652 133.762L212.962 129.622C214.122 129.322 215.332 129.092 216.592 128.932C217.852 128.772 219.042 128.692 220.162 128.692C222.702 128.692 224.572 129.122 225.772 129.982C226.972 130.822 227.572 132.142 227.572 133.942C227.572 134.682 227.502 135.342 227.362 135.922C227.222 136.502 226.952 137.032 226.552 137.512C226.172 137.992 225.612 138.462 224.872 138.922C224.152 139.382 223.192 139.882 221.992 140.422C220.812 140.962 219.352 141.582 217.612 142.282V143.542H227.272V147.892H212.602Z" fill="white"/>
<g filter="url(#filter0_f_150_19826)">
<rect x="200" y="200" width="254" height="333" rx="127" fill="#B8E46C"/>
</g>
<defs>
<filter id="filter0_f_150_19826" x="0" y="0" width="654" height="733" filterUnits="userSpaceOnUse" color-interpolation-filters="sRGB">
<feFlood flood-opacity="0" result="BackgroundImageFix"/>
<feBlend mode="normal" in="SourceGraphic" in2="BackgroundImageFix" result="shape"/>
<feGaussianBlur stdDeviation="100" result="effect1_foregroundBlur_150_19826"/>
</filter>
</defs>
</svg>
